svg/filled/home.svg

<svg width="24" height="24" viewBox="0 0 24 24" fill="none" xmlns="http://www.w3.org/2000/svg">
<path d="M12.8272 3.83418C12.2134 3.16337 11.1487 3.1885 10.5673 3.88752L5 10.5807C5 10.5807 4.99999 10.5807 5 10.5807V19.5C5 20.3284 5.67157 21 6.5 21H8.28943C9.11786 21 9.78943 20.3284 9.78943 19.5V16.4889C9.78943 15.6605 10.461 14.9889 11.2894 14.9889H12.7105C13.5389 14.9889 14.2105 15.6605 14.2105 16.4889V19.5C14.2105 20.3284 14.8821 21 15.7105 21H17.5C18.3284 21 19 20.3284 19 19.5V10.5807C19 10.5807 19 10.5807 19 10.5807L12.8272 3.83418Z" fill="black"/>
</svg>

<svg xmlns="http://www.w3.org/2000/svg" viewBox="0 0 24 24" fill="currentColor">
  <path d="M12.827 3.834a1.5 1.5 0 00-2.26.054L5 10.58V19.5A1.5 1.5 0 006.5 21h1.79a1.5 1.5 0 001.5-1.5v-3.011a1.5 1.5 0 011.5-1.5h1.42a1.5 1.5 0 011.5 1.5V19.5a1.5 1.5 0 001.5 1.5h1.79a1.5 1.5 0 001.5-1.5v-8.92l-6.173-6.746z"/>
</svg>
